X:1
T:Puer natus est
T:Heinrich Isaac edit BMarble
T:Introit, Christmas Day
T:Puer natus est
T:Copyright © 2015 by CPDL.  This edition can be fully distributed, duplicated, performed, and recorded 
T:Copyright © 2015 by CPDL.  This edition can be fully distributed, duplicated, performed, and recorded 
T:Copyright © 2015 by CPDL.  This edition can be fully distributed, duplicated, performed, and recorded 
T:Copyright © 2015 by CPDL.  This edition can be fully distributed, duplicated, performed, and recorded 
T:Copyright © 2015 by CPDL.  This edition can be fully distributed, duplicated, performed, and recorded 
T:Copyright © 2015 by CPDL.  This edition can be fully distributed, duplicated, performed, and recorded 
T:Copyright © 2015 by CPDL.  This edition can be fully distributed, duplicated, performed, and recorded 
T:Copyright © 2015 by CPDL.  This edition can be fully distributed, duplicated, performed, and recorded 
T:Copyright © 2015 by CPDL.  This edition can be fully distributed, duplicated, performed, and recorded 
C:Heinrich Isaac
C:edit BMarble
Z:Introit, Christmas Day
Z:Copyright © 2015 by CPDL.  This edition can be fully distributed, duplicated, performed, and recorded
%%score [ 1 2 3 4 ]
L:1/8
Q:1/2=92
M:4/4
K:Bb
V:1 treble nm="SOPRANO" snm="S."
V:2 treble nm="ALTO" snm="A."
V:3 treble-8 transpose=-12 nm="TENOR" snm="T."
V:4 bass nm="BASS" snm="B./T."
V:1
 z36 ||[M:2/1][Q:1/4=56] z16 | z16 | F8 c8 | d8 c8 | B8 A8 | G8 F4 B4- | B4 A4 B8 | z16 | %9
w: |||et fi-||||* li- us||
 z8 z4 G4 | (B6 A2 F4) G4 | (A4 F8 =E4) | F8 z4 F4 | B8 c8 | d12 c2 B2 | A8 B4 d4- | d2 c2 B8 A4 | %17
w: da-|tus _ _ est|no- * *|bis: cu-|jus im-|pe- * *||* * * ri-|
 B16- | B8 z8 | z4 F8 F4 | (G4 F4 D4) B4 | A2 G2 B4 A2 G2 B4 | (A4 G8 ^F4) | G16 | %24
w: um|_|su- per|hu- * * me-|rum _ _ _ _ _|e- * *|jus:|
 z4 (G6 F2 G2 A2 | B8) z4 B4 | B2 A2 B2 c2 d8 | c4 B8 A4 | B16 | z16 | z16 | B6 B2 B4 c4 | %32
w: et _ _ _|_ vo-|ca- * * * *|* * bi-|tur|||no- men e- *|
 B2 A2 G8 ^F4 | G16 | z4 G6 A2 B2 c2 | d2 G2 c8 =B4 | c16 | z16 | z8 z4 F4 | (G2 F2 B8) A4 | %40
w: |jus|ma- * * *||gni||con-|si- * * li-|
 (B8 G8) | z4 G6 A2 B4 | G4 B6 A2 G2 F2 | G4 F8 =E4 | F16!fine! |][Q:1/2=92] z42 || %46
w: i _|An- * *||* * ge-|lus.||
[M:2/1][Q:1/4=56] (c8 A8) | B4 c8 B4 | A4 c6 B2 A2 G2 | F4 E4 D8 | C4 G8 G4 | G8 A8 | %52
w: qui- *|a _ _|_ _ _ _ _||* mi- ra-|bi- *|
 B6 A2 G4 c4- | c4 B8 A4 | B6 AG F4 G4 | (A4 F8 =E4) | F16- | F16 ||[Q:1/2=92][Q:1/2=92] z52 | %59
w: |* * li-|a _ _ _ _|fe- * *|cit.|_||
 z46 ||[M:2/1][Q:1/4=56] (c8 A8) | (B4 c8) B4 | A4 c6 B2 A2 G2 | F4 E4 (D8 | C4) G8 G4 | G8 A8 | %66
w: |et _|in _ sae-||* cu- la|_ sae- cu-|lo- *|
 B6 A2 G4 c4- | c4 B8 A4 | B6 AG F4 G4 | A4 F8 =E4 | F16- | F16 |] %72
w: |* * rum.|A- * * * *||men.|_|
V:2
 z36 ||[M:2/1] z16 | z16 | z16 | B,8 (F8 | G8 F8) | (E8 D8) | C8 z4 B,4 | F8 G4 E4 | F8 E8 | %10
w: ||||et fi-||li- *|us et|fi- li- us|da- tus|
 D4 G,2 A,2 B,2 C2 D2 E2 | F4 F,4 C8 | z4 F,4 B,6 C2 | (D4 E4 C4) C4 | B,8 z8 | z8 z4 B,4 | %16
w: est no- * * * * *|* * bis:|cu- jus im-|pe- * * ri-|um|im-|
 F4 G4 F8 | z4 F8 E4 | G8 F8 | D8 z8 | z8 z4 D4- | D4 B,4 C4 G,4 | (A,2 B,2 C4) (D8 | B,8 E8) | %24
w: pe- ri- um|su- per|hu- me-|rum|su-|* per hu- me-|rum _ _ e-||
 D8 z4 G,4- | G,2 F,2 G,2 A,2 B,2 C2 D2 E2 | F6 E2 D2 C2 F4- | F2 D2 (E4 F8) | F6 F2 F4 G4 | %29
w: jus: et|_ _ _ _ _ _ vo- *|ca- * * * *|* bi- tur _|no- men e- *|
 F2 E2 D8 C4 | D4 G,2 A,2 B,2 C2 A,4 | G,6 A,2 B,2 C2 A,4 | G,4 B,4 A,8 | G,8 D8- | D16 | %35
w: |* jus _ _ _ _|ma- * * * *||* gni|_|
 z4 (G6 F2 D4) | =E8 z4 F4 | _E4 D4 C4 F4 | D4 B,4 C8 | B,8 z4 F4- | F4 D4 E8 | D4 E8 D4 | %42
w: ma- * *|gni con-|si- * * *|* * li-|i An-|||
 E4 E,2 F,2 G,2 A,2 B,2 CD | E4 B,4 C8 | C16 |] z42 ||[M:2/1] C8 F6 E2 | D4 C4 G8 | C16 | z16 | %50
w: |* * ge-|lus.||qui- * *||a||
 z4 E8 E4 | E4 E4 E8 | z4 (F4 E4 G4) | F8 z4 F4 | D4 E4 F4 E4- | E4 D4 C8 | C16- | C16 || z52 | %59
w: mi- ra-|bi- li- a|fe- * *|cit. fe-|||cit.|_||
 z46 ||[M:2/1] (C8 F6) E2 | (D4 C4 G6) G2 | C16 | z16 | z4 E8 E4 | E8 E8 | z4 (F4 E4 G4) | %67
w: |et _ in|sae- * * cu-|la||sae- cu-|lo- rum.|A- * *|
 F8 z4 F4 | D4 E4 F4 E4- | E4 D4 C8 | C16- | C16 |] %72
w: men. A-|||men.|_|
V:3
 (F2 c2) c4 (c2 d2 c2) B2 B4 (c2 B2 d2 c2) c8 ||[M:2/1] F8 (c8 | d8 c8) | (B8 A8) | G8 z8 | %5
w: Pu- * er na- * * tus est no- * * * bis|et fi-||li- *|us|
 z8 z4 F4 | (c8 d4 B4 | c8) (B4 G4 | A8) G8 | (B8 c8) | B8 B8 | (F8 G8) | F16 | z16 | z16 | %15
w: et|fi- * *|* li- *|* us|da- *|tus est|no- *|bis:|||
 z4 F4 B6 c2 | (d4 e4 c4) c4 | B8 z4 B4- | B4 B4 (c8 | B8) d8 | (c8 B8) | z4 d4 c4 B4 | c4 G4 A8 | %23
w: cu- jus im-|pe- * * ri-|um su-|* per hu-|* me-|rum _|e- * *||
 G8 z4 G4- | (G2 F2 G2 A2 B8) | z4 B4 B2 A2 B2 c2 | d12 c2 B2 | A4 B4 c4 c4 | B16 | z16 | %30
w: jus: et|_ _ _ _ _|vo- ca- * * *||* * * bi-|tur||
 B6 B2 B4 c4 | B2 A2 G8 F4 | G8 D8 | d8 z4 G4- | G2 A2 B2 c2 d4 G4 | B4 c4 d8 | c16 | z8 z4 F4 | %38
w: no- men e- *|||jus ma-|||gni|con-|
 (G2 F2 B8 A4) | (B8 c8) | (d8 B8) | G6 A2 B4 G4 | B6 A2 G2 F2 G4 | E4 F4 G8 | F16 |] %45
w: si- * * *|li- *|i _|An- * * *||* * ge-|lus.|
 (F2 B2 A2) (B2 c2) c2 c2 c2 c2 (c2 e2) d2 d2 (d2 c2) (c4 d8) ||[M:2/1] z16 | z16 | (c8 A8) | %49
w: Can- * * ta- * te Do- mi- no can- * ti- cum no- * vum _|||qui- *|
 B4 c8 =B4 | c8 z4 c4- | c4 c4 (c8 | d8 e8 | d8) c8 | B8 z4 (B4 | A4 B4 G8) | F16- | F16 || %58
w: a _ _|_ mi-|* ra- bi-||* li-|a fe-||cit.|_|
 (F2 B2 A2) (B2 c2) c2 c2 c2 c2 c2 c2 c2 c2 c2 (c2 e2) d2 d2 (d2 c2) (c4 d8) | %59
w: Glo- * * ri- * a Pa- tri et fi- li- o et Spi- ri- * tu- i San- * cto, _|
 (c2 A2) (B2 c2) c2 c2 c2 c2 c2 c2 c2 c2 (c2 e2) d2 (d2 c2) (c4 d8) ||[M:2/1] z16 | z16 | (c8 A8) | %63
w: si- * cut _ e- rat in prin- ci- pi- o et nunc _ et sem- * per _|||et _|
 B4 c8 =B4 | c8 z4 c4- | c4 c4 (c8 | d8 e8 | d8 c8) | B8 z4 (B4 | A4 B4 G8) | F16- | F16 |] %72
w: in sae- cu-|la sae-|* cu- lo-|||rum. A-||men.|_|
V:4
 z36 ||[M:2/1] z16 | F,8 (C8 | D8 C8) | (B,8 A,8) | (G,4 E,4 F,8) | z8 z4 B,,4 | F,8 G,4 E,4 | %8
w: ||et fi-||li- *|us _ _|et|fi- * *|
 F,8 (E,4 C,4) | D,8 C,2 D,2 E,2 F,2 | G,2 A,2 B,2 C2 D4 B,4 | C8 C,8 | (D,8 B,,8) | z8 z4 F,4 | %14
w: * li- *|us da- * * *|* * * * * tus|est no-|bis: _|cu-|
 B,6 C2 (D4 E4 | C4) C4 B,8- | B,4 E,4 F,4 F,4 | B,,16 | z4 B,,8 A,,4 | %19
w: jus im- pe- *|* ri- um|_ im- pe- ri-|um|su- per|
 B,,2 C,2 D,2 E,2 F,2 B,,2 B,4- | B,4 A,4 B,8 | z4 B,,4 F,4 G,4 | F,4 E,4 D,8 | %23
w: hu- * * * * * *|* me- rum|e- * *|* * jus:|
 z4 (G,6 F,2 G,2 A,2 | B,8) z4 B,4 | (B,2 A,2 B,2 C2 D4) B,4 | B,8 z4 B,,4 | (F,4 G,4) F,8 | %28
w: et _ _ _|_ vo-|ca- * * * * bi-|tur vo-|ca- * bi-|
 B,,8 z8 | B,6 B,2 B,4 C4 | B,2 A,2 G,8 F,4 | G,8 z8 | z16 | z4 G,6 A,2 B,2 C2 | D4 G,4 B,6 A,2 | %35
w: tur|no- men e- *||jus||ma- * * *||
 G,4 C,4 G,8 | C,8 z4 F,4 | G,2 F,2 B,8 A,4 | B,4 G,4 F,6 A,2 | G,8 F,8 | B,,8 (E,6 F,2 | %41
w: |gni con-|si- * * *||* li-|i An- *|
 G,4) (E,6 F,2 G,4) | E,8 z4 (E,4 | C,4 D,4) C,8 | F,16 |] z42 ||[M:2/1] z16 | z16 | %48
w: * ge- * *|lus. An-|* * ge-|lus.||||
 z4 C,4 F,6 E,2 | D,4 C,4 G,8 | C,8 z4 C,4- | C,4 C,4 C,4 C,4 | B,,8 z4 C,4 | D,4 B,,4 F,8 | %54
w: qui- * *||a mi-|* ra- bi- li-|a fe-||
 B,,4 E,4 D,4 E,4 | C,4 B,,4 C,8 | F,16- | F,16 || z52 | z46 ||[M:2/1] z16 | z16 | %62
w: ||cit.|_|||||
 z4 (C,4 F,6) E,2 | (D,4 C,4 G,6) G,2 | C,8 z4 C,4- | C,4 C,4 C,8 | B,,8 z4 (C,4 | D,4 B,,4 F,8) | %68
w: et _ in|sae- * * cu-|la sae-|* cu- lo-|rum. A-||
 B,,4 E,4 D,4 E,4 | C,4 B,,4 C,8 | F,16- | F,16 |] %72
w: men. A- * *||men.|_|

